**harm	**harte	**kern	**silbe	**kern	**silbe	**rhyme	**timestamp	**phrase	**leadinstrument
*M4/4	*M4/4	*ICvox	*	*ICvox	*	*	*	*	*
*	*	*VRlead	*	*VRharmonize	*	*	*	*	*
*	*	*Hstimme	*	*Nstimme	*	*	*	*	*
*C:	*C:	*C:	*	*C:	*	*	*	*	*
*	*	*M4/4	*	*M4/4	*	*	*	*	*
*	*	*clefG2	*	*clefG2	*	*	*	*	*
1r;	N	r;	.	r;	.	.	0	.	r
=1	=1	=1	=1	=1	=1	=1	=1	=1	=1
*>Letter>D	*>Letter>D	*>Letter>D	*>Letter>D	*>Letter>D	*>Letter>D	*>Letter>D	*>Letter>D	*>Letter>D	*>Letter>D
*>Label>Intro	*>Label>Intro	*>Label>Intro	*>Label>Intro	*>Label>Intro	*>Label>Intro	*>Label>Intro	*>Label>Intro	*>Label>Intro	*>Label>Intro
1r	N	1r	.	1r	.	.	0.09	newline	guitar
=2	=2	=2	=2	=2	=2	=2	=2	=2	=2
1r	N	1r	.	1r	.	.	2.308	.	guitar
=3	=3	=3	=3	=3	=3	=3	=3	=3	=3
*>Letter>B	*>Letter>B	*>Letter>B	*>Letter>B	*>Letter>B	*>Letter>B	*>Letter>B	*>Letter>B	*>Letter>B	*>Letter>B
*>Label>Verse	*>Label>Verse	*>Label>Verse	*>Label>Verse	*>Label>Verse	*>Label>Verse	*>Label>Verse	*>Label>Verse	*>Label>Verse	*>Label>Verse
1im7	C:min7	1r	.	1r	.	.	4.526	newline	.
=4	=4	=4	=4	=4	=4	=4	=4	=4	=4
1im7	C:min7	1r	.	1r	.	.	6.384	.	.
=5	=5	=5	=5	=5	=5	=5	=5	=5	=5
1im7	C:min7	1r	.	1r	.	.	8.242	.	.
=6	=6	=6	=6	=6	=6	=6	=6	=6	=6
1im7	C:min7	1r	.	1r	.	.	10.1	.	.
=7	=7	=7	=7	=7	=7	=7	=7	=7	=7
1im7	C:min7	1r	.	1r	.	.	11.957	.	.
=8	=8	=8	=8	=8	=8	=8	=8	=8	=8
1im7	C:min7	1r	.	1r	.	.	13.815	.	.
=9	=9	=9	=9	=9	=9	=9	=9	=9	=9
1im7	C:min7	1r	.	1r	.	.	15.673	.	.
=10	=10	=10	=10	=10	=10	=10	=10	=10	=10
1im7	C:min7	1r	.	1r	.	.	17.531	.	.
=11	=11	=11	=11	=11	=11	=11	=11	=11	=11
1im7	C:min7	1r	.	1r	.	.	19.389	.	.
=12	=12	=12	=12	=12	=12	=12	=12	=12	=12
1im7	C:min7	1r	.	1r	.	.	21.247	.	.
=13	=13	=13	=13	=13	=13	=13	=13	=13	=13
1im7	C:min7	1r	.	1r	.	.	23.105	.	.
=14	=14	=14	=14	=14	=14	=14	=14	=14	=14
1im7	C:min7	1r	.	1r	.	.	24.963	.	.
=15	=15	=15	=15	=15	=15	=15	=15	=15	=15
1im7	C:min7	1r	.	1r	.	.	26.82	.	.
=16	=16	=16	=16	=16	=16	=16	=16	=16	=16
1im7	C:min7	1r	.	1r	.	.	28.678	.	.
=17	=17	=17	=17	=17	=17	=17	=17	=17	=17
1im7	C:min7	1r	.	1r	.	.	30.536	.	.
=18	=18	=18	=18	=18	=18	=18	=18	=18	=18
1im7	C:min7	1r	.	2r	.	.	32.394	.	.
.	.	.	.	4r	.	.	.	.	.
.	.	.	.	8r	.	.	.	.	.
.	.	.	.	[8c	Burn	.	.	.	.
=19	=19	=19	=19	=19	=19	=19	=19	=19	=19
*>Letter>A	*>Letter>A	*>Letter>A	*>Letter>A	*>Letter>A	*>Letter>A	*>Letter>A	*>Letter>A	*>Letter>A	*>Letter>A
*>Label>Chorus	*>Label>Chorus	*>Label>Chorus	*>Label>Chorus	*>Label>Chorus	*>Label>Chorus	*>Label>Chorus	*>Label>Chorus	*>Label>Chorus	*>Label>Chorus
1IV	F:maj	1r	.	4c]	_	.	34.252	newline	voice
.	.	.	.	8A	ba-	.	.	.	.
.	.	.	.	8G	-by	.	.	.	.
.	.	.	.	4c	burn	.	.	.	.
.	.	.	.	4r	.	.	.	.	.
=20	=20	=20	=20	=20	=20	=20	=20	=20	=20
2-VII	B-:maj	1r	.	2r	.	.	36.104	.	voice
2v	G:min	.	.	4r	.	.	37.03	.	voice
.	.	.	.	8r	.	.	.	.	.
.	.	.	.	[8c	Burn	.	.	.	.
=21	=21	=21	=21	=21	=21	=21	=21	=21	=21
1I	C:maj	1r	.	4c]	_	.	37.956	.	voice
.	.	.	.	8A	ba-	.	.	.	.
.	.	.	.	8G	-by	.	.	.	.
.	.	.	.	4c	burn	.	.	.	.
.	.	.	.	4r	.	.	.	.	.
=22	=22	=22	=22	=22	=22	=22	=22	=22	=22
1I	C:maj	1r	.	2r	.	.	39.808	.	voice
.	.	.	.	4r	.	.	.	.	.
.	.	.	.	8r	.	.	.	.	.
.	.	.	.	[8c	Burn	.	.	.	.
=23	=23	=23	=23	=23	=23	=23	=23	=23	=23
1IV	F:maj	1r	.	4c]	_	.	41.66	newline	voice
.	.	.	.	8A	ba-	.	.	.	.
.	.	.	.	8G	-by	.	.	.	.
.	.	.	.	4c	burn	.	.	.	.
.	.	.	.	4r	.	.	.	.	.
=24	=24	=24	=24	=24	=24	=24	=24	=24	=24
2-VII	B-:maj	1r	.	2r	.	.	43.517	.	voice
2v	G:min	.	.	4r	.	.	44.445	.	voice
.	.	.	.	8r	.	.	.	.	.
.	.	.	.	[8c	Burn	.	.	.	.
=25	=25	=25	=25	=25	=25	=25	=25	=25	=25
1I	C:maj	1r	.	4c]	_	.	45.374	.	voice
.	.	.	.	8A	ba-	.	.	.	.
.	.	.	.	8G	-by	.	.	.	.
.	.	.	.	4c	burn?	.	.	.	.
.	.	.	.	4r	.	.	.	.	.
=26	=26	=26	=26	=26	=26	=26	=26	=26	=26
2I	C:maj	1r	.	2r	.	.	47.231	.	voice
4vb	G:min/b3	.	.	8.ee-	_	.	48.159	.	voice
.	.	.	.	8.dd	?	.	.	.	.
4IV7b	F:maj7/3	.	.	.	.	.	48.623	.	voice
.	.	.	.	8r	.	.	.	.	.
=27	=27	=27	=27	=27	=27	=27	=27	=27	=27
*>Letter>B	*>Letter>B	*>Letter>B	*>Letter>B	*>Letter>B	*>Letter>B	*>Letter>B	*>Letter>B	*>Letter>B	*>Letter>B
*>Label>Verse	*>Label>Verse	*>Label>Verse	*>Label>Verse	*>Label>Verse	*>Label>Verse	*>Label>Verse	*>Label>Verse	*>Label>Verse	*>Label>Verse
1im7	C:min7	4g	To	1r	.	.	49.088	newline	.
.	.	4r	.	.	.	.	.	.	.
.	.	4f	my	.	.	.	.	.	.
.	.	8e-	sup-	.	.	.	.	.	.
.	.	[8c	-rise	.	.	A	.	.	.
=28	=28	=28	=28	=28	=28	=28	=28	=28	=28
1im7	C:min7	4c]	_	1r	.	.	50.936	.	.
.	.	8r	.	.	.	.	.	.	.
.	.	16~c	lis-	.	.	.	.	.	.
.	.	16~G	-ten	.	.	.	.	.	.
.	.	4r	.	.	.	.	.	.	.
.	.	8r	.	.	.	.	.	.	.
.	.	8c	One	.	.	.	.	.	.
=29	=29	=29	=29	=29	=29	=29	=29	=29	=29
1im7	C:min7	8g	hun-	1r	.	.	52.784	.	.
.	.	8g	-dred	.	.	.	.	.	.
.	.	8r	.	.	.	.	.	.	.
.	.	[8g	stor-	.	.	.	.	.	.
.	.	8g]	_	.	.	.	.	.	.
.	.	8f	-ies	.	.	.	.	.	.
.	.	8e-	_	.	.	.	.	.	.
.	.	[8g	high	.	.	A	.	.	.
=30	=30	=30	=30	=30	=30	=30	=30	=30	=30
1im7	C:min7	8g]	_	1r	.	.	54.632	.	.
.	.	8g	_	.	.	.	.	.	.
.	.	16f	_	.	.	.	.	.	.
.	.	16e-	_	.	.	.	.	.	.
.	.	8r	.	.	.	.	.	.	.
.	.	2r	.	.	.	.	.	.	.
=31	=31	=31	=31	=31	=31	=31	=31	=31	=31
1im7	C:min7	8f#	Pe-	1r	.	.	56.48	.	.
.	.	[8g	-ople	.	.	.	.	.	.
.	.	4g_	_	.	.	.	.	.	.
.	.	8g]	_	.	.	.	.	.	.
.	.	8f	get-	.	.	.	.	.	.
.	.	8e-	-ting	.	.	.	.	.	.
.	.	[8f	loose	.	.	B	.	.	.
=32	=32	=32	=32	=32	=32	=32	=32	=32	=32
1im7	C:min7	8f]	_	1r	.	.	58.328	.	.
.	.	8c	y'all	.	.	.	.	.	.
.	.	4r	.	.	.	.	.	.	.
.	.	4r	.	.	.	.	.	.	.
.	.	8e-	Get-	.	.	.	.	.	.
.	.	8f	-ting	.	.	.	.	.	.
=33	=33	=33	=33	=33	=33	=33	=33	=33	=33
1im7	C:min7	2g	down	1r	.	.	60.176	.	.
.	.	8f	on	.	.	.	.	.	.
.	.	8e-	_	.	.	.	.	.	.
.	.	8c	the	.	.	.	.	.	.
.	.	[8c	roof	.	.	B	.	.	.
=34	=34	=34	=34	=34	=34	=34	=34	=34	=34
1im7	C:min7	16c]	_	1r	.	.	62.024	.	.
.	.	16r	.	.	.	.	.	.	.
.	.	16r	.	.	.	.	.	.	.
.	.	16B-	ya	.	.	.	.	.	.
.	.	8c	hear?	.	.	.	.	.	.
.	.	8r	.	.	.	.	.	.	.
.	.	2r	.	.	.	.	.	.	.
=35	=35	=35	=35	=35	=35	=35	=35	=35	=35
1im7	C:min7	4r	.	1r	.	.	63.873	.	.
.	.	8r	.	.	.	.	.	.	.
.	.	8~g	The	.	.	.	.	.	.
.	.	4cc	folks	.	.	.	.	.	.
.	.	8b-	are	.	.	.	.	.	.
.	.	[8cc	scream-	.	.	.	.	.	.
=36	=36	=36	=36	=36	=36	=36	=36	=36	=36
1im7	C:min7	8cc]	_	1r	.	.	65.721	.	.
.	.	8b-	-in'	.	.	.	.	.	.
.	.	4r	.	.	.	.	.	.	.
.	.	2r	.	.	.	.	.	.	.
=37	=37	=37	=37	=37	=37	=37	=37	=37	=37
1im7	C:min7	2r	.	1r	.	.	67.569	.	.
.	.	8g	out	.	.	.	.	.	.
.	.	8f	of	.	.	.	.	.	.
.	.	8e-	con-	.	.	.	.	.	.
.	.	[8g	-trol	.	.	C	.	.	.
=38	=38	=38	=38	=38	=38	=38	=38	=38	=38
1im7	C:min7	8g]	_	1r	.	.	69.417	.	.
.	.	8g	_	.	.	.	.	.	.
.	.	16f	_	.	.	.	.	.	.
.	.	16e-	_	.	.	.	.	.	.
.	.	8r	.	.	.	.	.	.	.
.	.	8r	.	.	.	.	.	.	.
.	.	8c	It	.	.	.	.	.	.
.	.	8c	was	.	.	.	.	.	.
.	.	[8g	so	.	.	C	.	.	.
=39	=39	=39	=39	=39	=39	=39	=39	=39	=39
1im7	C:min7	2g]	_	1r	.	.	71.265	.	.
.	.	8g	en-	.	.	.	.	.	.
.	.	8f#	-ter-	.	.	.	.	.	.
.	.	8r	.	.	.	.	.	.	.
.	.	[8f	-tain-	.	.	.	.	.	.
=40	=40	=40	=40	=40	=40	=40	=40	=40	=40
1im7	C:min7	8f]	_	1r	.	.	73.113	.	.
.	.	8g	-in'	.	.	.	.	.	.
.	.	4r	.	.	.	.	.	.	.
.	.	4r	.	.	.	.	.	.	.
.	.	8c	when	.	.	.	.	.	.
.	.	8e-	the	.	.	.	.	.	.
=41	=41	=41	=41	=41	=41	=41	=41	=41	=41
1im7	C:min7	8g	boo-	1r	.	.	74.961	.	.
.	.	8f#	-gie	.	.	.	.	.	.
.	.	4r	.	.	.	.	.	.	.
.	.	8f	start-	.	.	.	.	.	.
.	.	8c	-ed	.	.	.	.	.	.
.	.	8c	to	.	.	.	.	.	.
.	.	[8c	explode	.	.	C	.	.	.
=42	=42	=42	=42	=42	=42	=42	=42	=42	=42
1im7	C:min7	16c]	_	2r	.	.	76.809	.	.
.	.	16r	.	.	.	.	.	.	.
.	.	8e-	I	.	.	.	.	.	.
.	.	8d	heard	.	.	.	.	.	.
.	.	8c	some-	.	.	.	.	.	.
.	.	8d	-bo-	4r	.	.	.	.	.
.	.	8c	-dy	.	.	.	.	.	.
.	.	4c	say	8r	.	.	.	.	.
.	.	.	.	[8c	Burn	D	.	.	.
=43	=43	=43	=43	=43	=43	=43	=43	=43	=43
*>Letter>A	*>Letter>A	*>Letter>A	*>Letter>A	*>Letter>A	*>Letter>A	*>Letter>A	*>Letter>A	*>Letter>A	*>Letter>A
*>Label>Chorus	*>Label>Chorus	*>Label>Chorus	*>Label>Chorus	*>Label>Chorus	*>Label>Chorus	*>Label>Chorus	*>Label>Chorus	*>Label>Chorus	*>Label>Chorus
1IV	F:maj	1r	.	4c]	_	.	78.658	newline	.
.	.	.	.	8A	ba-	.	.	.	.
.	.	.	.	8G	-by	.	.	.	.
.	.	.	.	4c	burn	D	.	.	.
.	.	.	.	4r	.	.	.	.	.
=44	=44	=44	=44	=44	=44	=44	=44	=44	=44
2-VII	B-:maj	8a	Dis-	2r	.	.	80.517	.	.
.	.	8g	-co	.	.	c	.	.	.
.	.	8f	in-	.	.	.	.	.	.
.	.	8f	-fer-	.	.	D	.	.	.
2v	G:min	8f#	_	4r	.	.	81.447	.	.
.	.	8g	-no	.	.	c	.	.	.
.	.	4r	.	8r	.	.	.	.	.
.	.	.	.	[8c	Burn	D	.	.	.
=45	=45	=45	=45	=45	=45	=45	=45	=45	=45
1I	C:maj	2r	.	4c]	_	.	82.377	.	.
.	.	.	.	8A	ba-	.	.	.	.
.	.	.	.	8G	-by	.	.	.	.
.	.	4r	.	4c	burn	D	.	.	.
.	.	8B-	Burn	4r	.	D	.	.	.
.	.	8B-	the	.	.	.	.	.	.
=46	=46	=46	=46	=46	=46	=46	=46	=46	=46
1I	C:maj	8B-	mo-	2r	.	.	84.237	.	.
.	.	8c	-ther	.	.	.	.	.	.
.	.	4c	down	.	.	.	.	.	.
.	.	2r	.	4r	.	.	.	.	.
.	.	.	.	8r	.	.	.	.	.
.	.	.	.	[8c	Burn	D	.	.	.
=47	=47	=47	=47	=47	=47	=47	=47	=47	=47
1IV	F:maj	1r	.	4c]	_	.	86.097	newline	.
.	.	.	.	8A	ba-	.	.	.	.
.	.	.	.	8G	-by	.	.	.	.
.	.	.	.	4c	burn	D	.	.	.
.	.	.	.	4r	.	.	.	.	.
=48	=48	=48	=48	=48	=48	=48	=48	=48	=48
2-VII	B-:maj	6f	dis-	2r	.	.	87.949	.	.
.	.	6g-	-co	.	.	c	.	.	.
.	.	6f	in-	.	.	.	.	.	.
2v	G:min	8f	-fer-	4r	.	D	88.875	.	.
.	.	[4.g	-no	.	.	c	.	.	.
.	.	.	.	8r	.	.	.	.	.
.	.	.	.	[8c	Burn	D	.	.	.
=49	=49	=49	=49	=49	=49	=49	=49	=49	=49
1I	C:maj	8g]	_	4c]	_	.	89.801	.	.
.	.	16g	Yeah	.	.	.	.	.	.
.	.	16g-	_	.	.	.	.	.	.
.	.	8f	_	8A	ba-	.	.	.	.
.	.	8r	.	8G	-by	.	.	.	.
.	.	4r	.	4c	burn?	D	.	.	.
.	.	8B-	Burn	4r	.	D	.	.	.
.	.	8B-	the	.	.	.	.	.	.
=50	=50	=50	=50	=50	=50	=50	=50	=50	=50
2I	C:maj	8B-	mo-	2r	.	.	91.652	.	.
.	.	8c	-ther	.	.	.	.	.	.
.	.	8c	down	.	.	.	.	.	.
.	.	8r	.	.	.	.	.	.	.
4vb	G:min/b3	2r	.	8.ee-	_	.	92.578	.	.
.	.	.	.	8.dd	?	.	.	.	.
4IV7b	F:maj7/3	.	.	.	.	.	93.041	.	.
.	.	.	.	8r	.	.	.	.	.
=51	=51	=51	=51	=51	=51	=51	=51	=51	=51
*>Letter>B	*>Letter>B	*>Letter>B	*>Letter>B	*>Letter>B	*>Letter>B	*>Letter>B	*>Letter>B	*>Letter>B	*>Letter>B
*>Label>Verse	*>Label>Verse	*>Label>Verse	*>Label>Verse	*>Label>Verse	*>Label>Verse	*>Label>Verse	*>Label>Verse	*>Label>Verse	*>Label>Verse
1im7	C:min7	2.g	Sa-	1r	.	.	93.504	newline	.
.	.	8f	-tis-	.	.	.	.	.	.
.	.	[8f	-fac-	.	.	(E	.	.	.
=52	=52	=52	=52	=52	=52	=52	=52	=52	=52
1im7	C:min7	8f]	_	2r	.	.	95.349	.	.
.	.	8g	-tion	.	.	e)	.	.	.
.	.	4r	.	.	.	.	.	.	.
.	.	2r	.	8b-	Hoo	.	.	.	.
.	.	.	.	4cc	hoo	.	.	.	.
.	.	.	.	[8ee-	hoo	.	.	.	.
=53	=53	=53	=53	=53	=53	=53	=53	=53	=53
1im7	C:min7	4g	came	4ee-]	_	.	97.194	.	.
.	.	8f	in	4r	.	.	.	.	.
.	.	8e-	a	.	.	.	.	.	.
.	.	8f	chain	2r	.	.	.	.	.
.	.	8c	_	.	.	.	.	.	.
.	.	8c	re-	.	.	.	.	.	.
.	.	[8c	-ac-	.	.	(E	.	.	.
=54	=54	=54	=54	=54	=54	=54	=54	=54	=54
1im7	C:min7	8c]	_	2r	.	.	99.039	.	.
.	.	8B-	-tion	.	.	d)	.	.	.
.	.	4r	.	.	.	.	.	.	.
.	.	2r	.	4r	.	.	.	.	.
.	.	.	.	8r	.	.	.	.	.
.	.	.	.	[8cc	Burn-	.	.	.	.
=55	=55	=55	=55	=55	=55	=55	=55	=55	=55
1im7	C:min7	4r	.	4cc]	_	.	100.884	.	.
.	.	8r	.	4a	-in'	.	.	.	.
.	.	8~g	I	.	.	.	.	.	.
.	.	8~cc	could-	2r	.	.	.	.	.
.	.	8~cc	-n't	.	.	.	.	.	.
.	.	8~cc	get	.	.	.	.	.	.
.	.	8~cc	e-	.	.	.	.	.	.
=56	=56	=56	=56	=56	=56	=56	=56	=56	=56
1im7	C:min7	8~g	-nough	1r	.	F	102.73	.	.
.	.	8r	.	.	.	.	.	.	.
.	.	4r	.	.	.	.	.	.	.
.	.	4r	.	.	.	.	.	.	.
.	.	8c	so	.	.	.	.	.	.
.	.	8e-	I	.	.	.	.	.	.
=57	=57	=57	=57	=57	=57	=57	=57	=57	=57
1im7	C:min7	4.g	had	1r	.	.	104.575	.	.
.	.	8f	to	.	.	.	.	.	.
.	.	8~f	self	.	.	.	.	.	.
.	.	8r	.	.	.	.	.	.	.
.	.	8c	de-	.	.	.	.	.	.
.	.	8c	-struct	.	.	F	.	.	.
=58	=58	=58	=58	=58	=58	=58	=58	=58	=58
1im7	C:min7	1r	.	2r	.	.	106.42	.	.
.	.	.	.	8b-	Hoo	.	.	.	.
.	.	.	.	4cc	hoo	.	.	.	.
.	.	.	.	[8ee-	hoo	.	.	.	.
=59	=59	=59	=59	=59	=59	=59	=59	=59	=59
1im7	C:min7	2r	.	4ee-]	_	.	108.265	.	.
.	.	.	.	4r	.	.	.	.	.
.	.	8g-	Heat	2r	.	.	.	.	.
.	.	4f	was	.	.	.	.	.	.
.	.	[8g	on	.	.	G	.	.	.
=60	=60	=60	=60	=60	=60	=60	=60	=60	=60
1im7	C:min7	8g]	_	2r	.	.	110.11	.	.
.	.	8g	_	.	.	.	.	.	.
.	.	16f	_	.	.	.	.	.	.
.	.	8.e-	_	.	.	.	.	.	.
.	.	4r	.	4r	.	.	.	.	.
.	.	8r	.	8r	.	.	.	.	.
.	.	[8g	ri-	[8cc	Burn-	.	.	.	.
=61	=61	=61	=61	=61	=61	=61	=61	=61	=61
1im7	C:min7	4.g]	_	4cc]	_	.	111.955	.	.
.	.	.	.	4a	-in'	.	.	.	.
.	.	8f	-sing	.	.	.	.	.	.
.	.	8f	to	2r	.	.	.	.	.
.	.	8e-	the	.	.	.	.	.	.
.	.	8r	.	.	.	.	.	.	.
.	.	8g	top	.	.	G	.	.	.
=62	=62	=62	=62	=62	=62	=62	=62	=62	=62
1im7	C:min7	4r	.	1r	.	.	113.8	.	.
.	.	8~c	Uh	.	.	.	.	.	.
.	.	8r	.	.	.	.	.	.	.
.	.	2r	.	.	.	.	.	.	.
=63	=63	=63	=63	=63	=63	=63	=63	=63	=63
1im7	C:min7	4r	.	1r	.	.	115.646	.	.
.	.	8~b-	Ev-	.	.	.	.	.	.
.	.	8~b-	-ery-	.	.	.	.	.	.
.	.	8~b-	-bo-	.	.	.	.	.	.
.	.	8~b-	-dy	.	.	.	.	.	.
.	.	4~b-	going	.	.	.	.	.	.
=64	=64	=64	=64	=64	=64	=64	=64	=64	=64
1im7	C:min7	8~g	strong	1r	.	G	117.491	.	.
.	.	8r	.	.	.	.	.	.	.
.	.	4r	.	.	.	.	.	.	.
.	.	4r	.	.	.	.	.	.	.
.	.	8r	.	.	.	.	.	.	.
.	.	[8g	that	.	.	.	.	.	.
=65	=65	=65	=65	=65	=65	=65	=65	=65	=65
1im7	C:min7	8g]	_	1r	.	.	119.336	.	.
.	.	8f	is	.	.	.	.	.	.
.	.	8f	when	.	.	.	.	.	.
.	.	8e-	my	.	.	.	.	.	.
.	.	8f	spark	.	.	.	.	.	.
.	.	8r	.	.	.	.	.	.	.
.	.	8c	got	.	.	G	.	.	.
.	.	8r	.	.	.	.	.	.	.
=66	=66	=66	=66	=66	=66	=66	=66	=66	=66
1im7	C:min7	8c	hot	2r	.	G	121.181	.	.
.	.	8e-	I	.	.	.	.	.	.
.	.	8d	heard	.	.	.	.	.	.
.	.	8c	some-	.	.	.	.	.	.
.	.	8d	-bo-	4r	.	.	.	.	.
.	.	8c	-dy	.	.	.	.	.	.
.	.	4c	say	8r	.	.	.	.	.
.	.	.	.	[8c	Burn	D	.	.	.
=67	=67	=67	=67	=67	=67	=67	=67	=67	=67
*>Letter>A	*>Letter>A	*>Letter>A	*>Letter>A	*>Letter>A	*>Letter>A	*>Letter>A	*>Letter>A	*>Letter>A	*>Letter>A
*>Label>Chorus	*>Label>Chorus	*>Label>Chorus	*>Label>Chorus	*>Label>Chorus	*>Label>Chorus	*>Label>Chorus	*>Label>Chorus	*>Label>Chorus	*>Label>Chorus
1IV	F:maj	1r	.	4c]	_	.	123.026	newline	.
.	.	.	.	8A	ba-	.	.	.	.
.	.	.	.	8G	-by	.	.	.	.
.	.	.	.	4c	burn	D	.	.	.
.	.	.	.	4r	.	.	.	.	.
=68	=68	=68	=68	=68	=68	=68	=68	=68	=68
2-VII	B-:maj	8a	Dis-	2r	.	.	124.883	.	.
.	.	8g	-co	.	.	c	.	.	.
.	.	8f	in-	.	.	.	.	.	.
.	.	8f	-fer-	.	.	D	.	.	.
2v	G:min	8f#	_	4r	.	.	125.811	.	.
.	.	8g	-no	.	.	c	.	.	.
.	.	4r	.	8r	.	.	.	.	.
.	.	.	.	[8c	Burn	D	.	.	.
=69	=69	=69	=69	=69	=69	=69	=69	=69	=69
1I	C:maj	4r	.	4c]	_	.	126.74	.	.
.	.	4r	.	8A	ba-	.	.	.	.
.	.	.	.	8G	-by	.	.	.	.
.	.	8r	.	4c	burn	D	.	.	.
.	.	8~a	burn	.	.	D	.	.	.
.	.	8~g	_	4r	.	.	.	.	.
.	.	8g	that	.	.	.	.	.	.
=70	=70	=70	=70	=70	=70	=70	=70	=70	=70
1I	C:maj	8r	.	2r	.	.	128.596	.	.
.	.	8e-	mo-	.	.	.	.	.	.
.	.	8f	-ther	.	.	.	.	.	.
.	.	[8c	down	.	.	.	.	.	.
.	.	8c]	_	4r	.	.	.	.	.
.	.	4c	ya'll	.	.	.	.	.	.
.	.	.	.	8r	.	.	.	.	.
.	.	8r	.	[8c	Burn	D	.	.	.
=71	=71	=71	=71	=71	=71	=71	=71	=71	=71
1IV	F:maj	1r	.	4c]	_	.	130.453	newline	.
.	.	.	.	8A	ba-	.	.	.	.
.	.	.	.	8G	-by	.	.	.	.
.	.	.	.	4c	burn	D	.	.	.
.	.	.	.	4r	.	.	.	.	.
=72	=72	=72	=72	=72	=72	=72	=72	=72	=72
2-VII	B-:maj	8f	dis-	2r	.	.	132.304	.	.
.	.	8f	-co	.	.	c	.	.	.
.	.	8f	in-	.	.	.	.	.	.
.	.	[8f	-fer-	.	.	D	.	.	.
2v	G:min	8f]	_	4r	.	.	133.229	.	.
.	.	[4.g	-no	.	.	c	.	.	.
.	.	.	.	8r	.	.	.	.	.
.	.	.	.	[8c	Burn	D	.	.	.
=73	=73	=73	=73	=73	=73	=73	=73	=73	=73
1I	C:maj	4.g]	_	4c]	_	.	134.155	.	.
.	.	.	.	8A	ba-	.	.	.	.
.	.	16g	Yeah	8G	-by	.	.	.	.
.	.	16f	_	.	.	.	.	.	.
.	.	8r	.	4c	burn?	D	.	.	.
.	.	8r	.	.	.	.	.	.	.
.	.	4r	.	4r	.	.	.	.	.
=74	=74	=74	=74	=74	=74	=74	=74	=74	=74
2I	C:maj	8B-	mo-	2r	.	.	136.006	.	.
.	.	8c	-ther	.	.	.	.	.	.
.	.	4c	down	.	.	.	.	.	.
4vb	G:min/b3	2r	.	8.ee-	_	.	136.931	.	.
.	.	.	.	8.dd	?	.	.	.	.
4IV7b	F:maj7/3	.	.	.	.	.	137.394	.	.
.	.	.	.	8r	.	.	.	.	.
=75	=75	=75	=75	=75	=75	=75	=75	=75	=75
*>Letter>C	*>Letter>C	*>Letter>C	*>Letter>C	*>Letter>C	*>Letter>C	*>Letter>C	*>Letter>C	*>Letter>C	*>Letter>C
*>Label>Bridge	*>Label>Bridge	*>Label>Bridge	*>Label>Bridge	*>Label>Bridge	*>Label>Bridge	*>Label>Bridge	*>Label>Bridge	*>Label>Bridge	*>Label>Bridge
1-VII7	B-:maj7	1r	.	4r	.	.	137.857	newline	.
.	.	.	.	8B-	Up	.	.	.	.
.	.	.	.	8B-	a-	.	.	.	.
.	.	.	.	4d	-bove	.	.	.	.
.	.	.	.	4f	my	.	.	.	.
=76	=76	=76	=76	=76	=76	=76	=76	=76	=76
1-VII7	B-:maj7	1r	.	2a	head	.	139.742	.	.
.	.	.	.	4a	I	.	.	.	.
.	.	.	.	4a	hear	.	.	.	.
=77	=77	=77	=77	=77	=77	=77	=77	=77	=77
1I	C:maj	2r	.	8a	mu-	.	141.627	.	.
.	.	.	.	8g	-sic	.	.	.	.
.	.	.	.	8g	in	.	.	.	.
.	.	.	.	8f	the	.	.	.	.
.	.	8r	.	[2g	air	H	.	.	.
.	.	8b-	I	.	.	.	.	.	.
.	.	8cc	love	.	.	.	.	.	.
.	.	[8cc	mu-	.	.	.	.	.	.
=78	=78	=78	=78	=78	=78	=78	=78	=78	=78
1I	C:maj	4.cc]	_	2g]	_	.	143.511	.	.
.	.	8b-	-sic	.	.	.	.	.	.
.	.	2r	.	2r	.	.	.	.	.
=79	=79	=79	=79	=79	=79	=79	=79	=79	=79
1-VII7	B-:maj7	1r	.	4r	.	.	145.396	newline	.
.	.	.	.	4B-	That	.	.	.	.
.	.	.	.	4d	makes	.	.	.	.
.	.	.	.	4f	me	.	.	.	.
=80	=80	=80	=80	=80	=80	=80	=80	=80	=80
1-VII7	B-:maj7	1r	.	2a	know	.	147.275	.	.
.	.	.	.	4a	there's	H	.	.	.
.	.	.	.	4a	a	.	.	.	.
=81	=81	=81	=81	=81	=81	=81	=81	=81	=81
1I	C:maj	1r	.	8a	par-	.	149.154	.	.
.	.	.	.	8g	-ty	.	.	.	.
.	.	.	.	8g	some-	.	.	.	.
.	.	.	.	8f	_	.	.	.	.
.	.	.	.	2g	-where	H	.	.	.
=82	=82	=82	=82	=82	=82	=82	=82	=82	=82
1v	G:min	1r	.	1b	_	.	151.032	.	.
=83	=83	=83	=83	=83	=83	=83	=83	=83	=83
1v	G:min	1r	.	1r	.	.	152.911	.	.
=84	=84	=84	=84	=84	=84	=84	=84	=84	=84
*>Letter>B	*>Letter>B	*>Letter>B	*>Letter>B	*>Letter>B	*>Letter>B	*>Letter>B	*>Letter>B	*>Letter>B	*>Letter>B
*>Label>Verse	*>Label>Verse	*>Label>Verse	*>Label>Verse	*>Label>Verse	*>Label>Verse	*>Label>Verse	*>Label>Verse	*>Label>Verse	*>Label>Verse
1im7	C:min7	2.cc	Sa-	1r	.	.	154.789	newline	.
.	.	8b-	-tis-	.	.	.	.	.	.
.	.	[8b-	-fac-	.	.	(E	.	.	.
=85	=85	=85	=85	=85	=85	=85	=85	=85	=85
1im7	C:min7	8b-]	_	1r	.	.	156.648	.	.
.	.	8cc	-tion	.	.	d)	.	.	.
.	.	4r	.	.	.	.	.	.	.
.	.	2r	.	.	.	.	.	.	.
=86	=86	=86	=86	=86	=86	=86	=86	=86	=86
1im7	C:min7	4g	came	1r	.	.	158.507	.	.
.	.	8f	in	.	.	.	.	.	.
.	.	8e-	a	.	.	.	.	.	.
.	.	8f	chain	.	.	.	.	.	.
.	.	8c	_	.	.	.	.	.	.
.	.	8c	re-	.	.	.	.	.	.
.	.	[8c	-ac-	.	.	(E	.	.	.
=87	=87	=87	=87	=87	=87	=87	=87	=87	=87
1im7	C:min7	8c]	_	1r	.	.	160.366	.	.
.	.	8~G	-tion	.	.	d)	.	.	.
.	.	8r	.	.	.	.	.	.	.
.	.	16r	.	.	.	.	.	.	.
.	.	16B-	ya	.	.	.	.	.	.
.	.	8c	hear?	.	.	.	.	.	.
.	.	8r	.	.	.	.	.	.	.
.	.	4r	.	.	.	.	.	.	.
=88	=88	=88	=88	=88	=88	=88	=88	=88	=88
1im7	C:min7	4r	.	1r	.	.	162.225	.	.
.	.	8r	.	.	.	.	.	.	.
.	.	8~g	I	.	.	.	.	.	.
.	.	8~cc	could-	.	.	.	.	.	.
.	.	8~cc	-n't	.	.	.	.	.	.
.	.	8~cc	get	.	.	.	.	.	.
.	.	8~cc	e-	.	.	.	.	.	.
=89	=89	=89	=89	=89	=89	=89	=89	=89	=89
1im7	C:min7	8~g	-nough	1r	.	F	164.084	.	.
.	.	8r	.	.	.	.	.	.	.
.	.	4r	.	.	.	.	.	.	.
.	.	4r	.	.	.	.	.	.	.
.	.	8c	so	.	.	.	.	.	.
.	.	8e-	I	.	.	.	.	.	.
=90	=90	=90	=90	=90	=90	=90	=90	=90	=90
1im7	C:min7	4.g	had	1r	.	.	165.943	.	.
.	.	8f	to	.	.	.	.	.	.
.	.	8~f	self	.	.	.	.	.	.
.	.	8r	.	.	.	.	.	.	.
.	.	8c	de-	.	.	.	.	.	.
.	.	8c	-struct	.	.	F	.	.	.
=91	=91	=91	=91	=91	=91	=91	=91	=91	=91
1im7	C:min7	8r	.	1r	.	.	167.802	.	.
.	.	8~c	uh	.	.	.	.	.	.
.	.	4r	.	.	.	.	.	.	.
.	.	2r	.	.	.	.	.	.	.
=92	=92	=92	=92	=92	=92	=92	=92	=92	=92
1im7	C:min7	4.r	.	1r	.	.	169.661	.	.
.	.	8c	the	.	.	.	.	.	.
.	.	8g-	Heat	.	.	.	.	.	.
.	.	4f	was	.	.	.	.	.	.
.	.	[8g	on	.	.	G	.	.	.
=93	=93	=93	=93	=93	=93	=93	=93	=93	=93
1im7	C:min7	8g]	_	1r	.	.	171.52	.	.
.	.	8g	_	.	.	.	.	.	.
.	.	16f	_	.	.	.	.	.	.
.	.	8.e-	_	.	.	.	.	.	.
.	.	4r	.	.	.	.	.	.	.
.	.	8r	.	.	.	.	.	.	.
.	.	[8g	ri-	.	.	.	.	.	.
=94	=94	=94	=94	=94	=94	=94	=94	=94	=94
1im7	C:min7	4.g]	_	1r	.	.	173.379	.	.
.	.	8f	-sing	.	.	.	.	.	.
.	.	8f	to	.	.	.	.	.	.
.	.	8e-	the	.	.	.	.	.	.
.	.	8r	.	.	.	.	.	.	.
.	.	8g	top	.	.	G	.	.	.
=95	=95	=95	=95	=95	=95	=95	=95	=95	=95
1im7	C:min7	8r	.	1r	.	.	175.237	.	.
.	.	8~c	Uh	.	.	.	.	.	.
.	.	4r	.	.	.	.	.	.	.
.	.	2r	.	.	.	.	.	.	.
=96	=96	=96	=96	=96	=96	=96	=96	=96	=96
1im7	C:min7	4r	.	1r	.	.	177.096	.	.
.	.	8~b-	Ev-	.	.	.	.	.	.
.	.	8~b-	-ery-	.	.	.	.	.	.
.	.	8~b-	-bo-	.	.	.	.	.	.
.	.	8~b-	-dy	.	.	.	.	.	.
.	.	4~b-	going	.	.	.	.	.	.
=97	=97	=97	=97	=97	=97	=97	=97	=97	=97
1im7	C:min7	8~g	strong	1r	.	G	178.955	.	.
.	.	8r	.	.	.	.	.	.	.
.	.	4r	.	.	.	.	.	.	.
.	.	4r	.	.	.	.	.	.	.
.	.	8r	.	.	.	.	.	.	.
.	.	[8g	that	.	.	.	.	.	.
=98	=98	=98	=98	=98	=98	=98	=98	=98	=98
1im7	C:min7	8g]	_	1r	.	.	180.814	.	.
.	.	8f	is	.	.	.	.	.	.
.	.	8f	when	.	.	.	.	.	.
.	.	8e-	my	.	.	.	.	.	.
.	.	8f	spark	.	.	.	.	.	.
.	.	8r	.	.	.	.	.	.	.
.	.	8c	got	.	.	G	.	.	.
.	.	8r	.	.	.	.	.	.	.
=99	=99	=99	=99	=99	=99	=99	=99	=99	=99
1im7	C:min7	8c	hot	2r	.	G	182.673	.	.
.	.	8e-	I	.	.	.	.	.	.
.	.	8d	heard	.	.	.	.	.	.
.	.	8c	some-	.	.	.	.	.	.
.	.	8d	-bo-	4r	.	.	.	.	.
.	.	8c	-dy	.	.	.	.	.	.
.	.	4c	say	8r	.	.	.	.	.
.	.	.	.	[8c	Burn	D	.	.	.
=100	=100	=100	=100	=100	=100	=100	=100	=100	=100
*>Letter>A	*>Letter>A	*>Letter>A	*>Letter>A	*>Letter>A	*>Letter>A	*>Letter>A	*>Letter>A	*>Letter>A	*>Letter>A
*>Label>Chorus	*>Label>Chorus	*>Label>Chorus	*>Label>Chorus	*>Label>Chorus	*>Label>Chorus	*>Label>Chorus	*>Label>Chorus	*>Label>Chorus	*>Label>Chorus
1IV	F:maj	1r	.	4c]	_	.	184.532	newline	.
.	.	.	.	8A	ba-	.	.	.	.
.	.	.	.	8G	-by	.	.	.	.
.	.	.	.	4c	burn	D	.	.	.
.	.	.	.	4r	.	.	.	.	.
=101	=101	=101	=101	=101	=101	=101	=101	=101	=101
2-VII	B-:maj	8a	Dis-	2r	.	.	186.431	.	.
.	.	8g	-co	.	.	c	.	.	.
.	.	8f	in-	.	.	.	.	.	.
.	.	8f	-fer-	.	.	(D	.	.	.
2v	G:min	8f#	_	4r	.	.	187.38	.	.
.	.	8g	-no	.	.	c)	.	.	.
.	.	4r	.	8r	.	.	.	.	.
.	.	.	.	[8c	Burn	D	.	.	.
=102	=102	=102	=102	=102	=102	=102	=102	=102	=102
1I	C:maj	4r	.	4c]	_	.	188.33	.	.
.	.	4r	.	8A	ba-	.	.	.	.
.	.	.	.	8G	-by	.	.	.	.
.	.	8r	.	4c	burn	D	.	.	.
.	.	8~a	burn	.	.	D	.	.	.
.	.	8~g	_	4r	.	.	.	.	.
.	.	8g	that	.	.	.	.	.	.
=103	=103	=103	=103	=103	=103	=103	=103	=103	=103
1I	C:maj	8r	.	2r	.	.	190.228	.	.
.	.	8e-	mo-	.	.	.	.	.	.
.	.	8f	-ther	.	.	.	.	.	.
.	.	[8c	down	.	.	.	.	.	.
.	.	8c]	_	4r	.	.	.	.	.
.	.	4r	.	.	.	.	.	.	.
.	.	.	.	8r	.	.	.	.	.
.	.	8r	.	[8c	Burn	D	.	.	.
=104	=104	=104	=104	=104	=104	=104	=104	=104	=104
1IV	F:maj	1r	.	4c]	_	.	192.127	newline	.
.	.	.	.	8A	ba-	.	.	.	.
.	.	.	.	8G	-by	.	.	.	.
.	.	.	.	4c	burn	D	.	.	.
.	.	.	.	4r	.	.	.	.	.
=105	=105	=105	=105	=105	=105	=105	=105	=105	=105
2-VII	B-:maj	8f	dis-	2r	.	.	194.036	.	.
.	.	8f	-co	.	.	c	.	.	.
.	.	8f	in-	.	.	.	.	.	.
.	.	[8f	-fer-	.	.	(D	.	.	.
2v	G:min	8f]	_	4r	.	.	194.991	.	.
.	.	[4.g	-no	.	.	c)	.	.	.
.	.	.	.	8r	.	.	.	.	.
.	.	.	.	[8c	Burn	D	.	.	.
=106	=106	=106	=106	=106	=106	=106	=106	=106	=106
1I	C:maj	8g]	_	4c]	_	.	195.945	.	.
.	.	16g	Yeah	.	.	.	.	.	.
.	.	16f	_	.	.	.	.	.	.
.	.	4r	.	8A	ba-	.	.	.	.
.	.	.	.	8G	-by	.	.	.	.
.	.	4r	.	4c	burn	D	.	.	.
.	.	8B-	Burn	4r	.	d	.	.	.
.	.	8B-	the	.	.	.	.	.	.
=107	=107	=107	=107	=107	=107	=107	=107	=107	=107
1I	C:maj	8B-	mo-	2r	.	.	197.854	.	.
.	.	8c	-ther	.	.	.	.	.	.
.	.	4c	down	.	.	.	.	.	.
.	.	2r	.	4r	.	.	.	.	.
.	.	.	.	8r	.	.	.	.	.
.	.	.	.	[8c	Burn	D	.	.	.
=108	=108	=108	=108	=108	=108	=108	=108	=108	=108
*>Letter>A	*>Letter>A	*>Letter>A	*>Letter>A	*>Letter>A	*>Letter>A	*>Letter>A	*>Letter>A	*>Letter>A	*>Letter>A
*>Label>Chorus	*>Label>Chorus	*>Label>Chorus	*>Label>Chorus	*>Label>Chorus	*>Label>Chorus	*>Label>Chorus	*>Label>Chorus	*>Label>Chorus	*>Label>Chorus
1IV	F:maj	2r	.	4c]	_	.	199.763	newline	.
.	.	.	.	8A	ba-	.	.	.	.
.	.	.	.	8G	-by	.	.	.	.
.	.	8r	.	4c	burn	D	.	.	.
.	.	[4.~cc	Ah	.	.	.	.	.	.
.	.	.	.	4r	.	.	.	.	.
=109	=109	=109	=109	=109	=109	=109	=109	=109	=109
2-VII	B-:maj	4.~cc]	_	2r	.	.	201.655	.	.
.	.	8~cc	hey	.	.	.	.	.	.
2v	G:min	2r	.	4r	.	.	202.6	.	.
.	.	.	.	8r	.	.	.	.	.
.	.	.	.	[8c	Burn	D	.	.	.
=110	=110	=110	=110	=110	=110	=110	=110	=110	=110
1I	C:maj	2r	.	4c]	_	.	203.546	.	.
.	.	.	.	8A	ba-	.	.	.	.
.	.	.	.	8G	-by	.	.	.	.
.	.	4r	.	4c	burn	D	.	.	.
.	.	8B-	Burn	4r	.	D	.	.	.
.	.	8B-	the	.	.	.	.	.	.
=111	=111	=111	=111	=111	=111	=111	=111	=111	=111
1I	C:maj	8B-	mo-	2r	.	.	205.437	.	.
.	.	8c	-ther	.	.	.	.	.	.
.	.	4c	down	.	.	.	.	.	.
.	.	2r	.	4r	.	.	.	.	.
.	.	.	.	8r	.	.	.	.	.
.	.	.	.	[8c	Burn	D	.	.	.
=112	=112	=112	=112	=112	=112	=112	=112	=112	=112
1IV	F:maj	1r	.	4c]	_	.	207.329	newline	guitar voice
.	.	.	.	8A	ba-	.	.	.	.
.	.	.	.	8G	-by	.	.	.	.
.	.	.	.	4c	burn	D	.	.	.
.	.	.	.	4r	.	.	.	.	.
=113	=113	=113	=113	=113	=113	=113	=113	=113	=113
2-VII	B-:maj	8a	Dis-	2r	.	.	208.958	.	guitar voice
.	.	8g	-co	.	.	c	.	.	.
.	.	8f	in-	.	.	.	.	.	.
.	.	8f	-fer-	.	.	(D	.	.	.
2v	G:min	8f#	_	4r	.	.	209.773	.	guitar voice
.	.	8g	-no	.	.	c)	.	.	.
.	.	4r	.	8r	.	.	.	.	.
.	.	.	.	[8c	Burn	D	.	.	.
=114	=114	=114	=114	=114	=114	=114	=114	=114	=114
1I	C:maj	1r	.	4c]	_	.	210.587	.	guitar voice
.	.	.	.	8A	ba-	.	.	.	.
.	.	.	.	8G	-by	.	.	.	.
.	.	.	.	4c	burn	D	.	.	.
.	.	.	.	4r	.	.	.	.	.
=115	=115	=115	=115	=115	=115	=115	=115	=115	=115
1I	C:maj	1r	.	1r	.	.	212.216	.	guitar voice
1r;	N	r;	.	r;	.	.	213.846	.	r
1r;	N	r;	.	r;	.	.	217.372	.	r
*-	*-	*-	*-	*-	*-	*-	*-	*-	*-
!!!BillboardChartDate: 1977/03/12, 1977/04/16
!!!BillboardPeak: 11, 11
!!!BillboardWeeksOnChart: 29, 29
!!!COC: The Trammps
!!!ENC: Nathaniel Condit-Schultz
!!!EST: Awating manual error checking and editing.
!!!OTL: Disco Inferno
!!!RDF**harte: Chris Harte's syntax, used by MIREX
!!!RDF**harmony: **recip + pitch class of root + harmonic quality
!!!RDF**leadinstrument: original McGill primary instrumentation annotation
!!!RDF**phrase: newline = linebreak in original McGill transcription
!!!RDF**timestamp: McGill audio timestamp in seconds
!!!RDT: 2017/01/12/
!!!SampleActualRank: 79, 53
!!!SampleID#: 546, 1016
!!!SampleTargetRank: 80, 54
!!!MBID: fe1bbf77-90a5-4d5d-9a7e-b002966510c8
